cast-audio.svg

<svg fill="currentColor" viewBox="0 0 24 24"><path d="M2 11v2c5 0 9 4 9 9h2c0-6.1-4.9-11-11-11m18-9H10c-1.1 0-2 .9-2 2v6.5c1 .5 1.9 1.2 2.7 1.9.9-1.4 2.5-2.4 4.3-2.4 2.8 0 5 2.2 5 5s-2.2 5-5 5h-.2c.1.7.2 1.3.2 2h5c1.1 0 2-.9 2-2V4c0-1.1-.9-2-2-2m-5 6c-1.1 0-2-.9-2-2s.9-2 2-2 2 .9 2 2-.9 2-2 2m0 10c-.2 0-.5 0-.7-.1-.5-1.5-1.2-2.8-2.1-4 .4-1.1 1.5-2 2.8-2 1.7 0 3 1.3 3 3S16.7 18 15 18M2 15v2c2.8 0 5 2.2 5 5h2c0-3.9-3.1-7-7-7m0 4v3h3c0-1.7-1.3-3-3-3"/></svg>

<svg  viewBox="0 0 24 24" fill="currentColor"><path  d="M2 11V13C7 13 11 17 11 22H13C13 15.9 8.1 11 2 11M20 2H10C8.9 2 8 2.9 8 4V10.5C9 11 9.9 11.7 10.7 12.4C11.6 11 13.2 10 15 10C17.8 10 20 12.2 20 15S17.8 20 15 20H14.8C14.9 20.7 15 21.3 15 22H20C21.1 22 22 21.1 22 20V4C22 2.9 21.1 2 20 2M15 8C13.9 8 13 7.1 13 6C13 4.9 13.9 4 15 4C16.1 4 17 4.9 17 6S16.1 8 15 8M15 18C14.8 18 14.5 18 14.3 17.9C13.8 16.4 13.1 15.1 12.2 13.9C12.6 12.8 13.7 11.9 15 11.9C16.7 11.9 18 13.2 18 14.9S16.7 18 15 18M2 15V17C4.8 17 7 19.2 7 22H9C9 18.1 5.9 15 2 15M2 19V22H5C5 20.3 3.7 19 2 19"/></svg>
